experiment-5/src/assets/svg/logo.svg

<svg viewBox="0 0 512 512" xmlns="http://www.w3.org/2000/svg"><g fill="#f44219"><path d="M0 0h.06A.17.17 0 010 .06V0zM216.83 50.35c1.92-1.04 4.1-.98 6.22-.83 2.69-.06 5.22-1.22 7.92-1.09 8.65.15 17.29-.08 25.94.12 2.65 1.76 6.04.6 9.01 1.01 1.46 1.19 3.4.84 5.14.98 5.05.18 10.28.72 14.93 2.79l2.05.44 2.5.33.17.05c5.03 1.3 10.24 2.14 15.01 4.29 3.47 1.64 7.65 1.39 10.77 3.84 1.74.61 3.47 1.23 5.2 1.89 1.59.36 3.6.35 4.15 2.25l1.01-.11a20.79 20.79 0 006 2.84c3.95 2.93 8.96 3.92 12.76 7.05 2.83 1.35 5.66 2.64 7.85 4.97 4.14 1.29 6.71 5.13 10.78 6.49.76 2.3 3.73 2.27 4.65 4.49 1.51.78 2.95 1.7 4.08 2.99l1.56 1.31 3.16 1.42-.52 1.49c3.69 1.03 5.28 5.37 9.09 6.47.22 1.24.52 2.53 1.92 2.9 3.18 1.52 4.56 4.94 6.96 7.3.13 1.72 1.46 2.4 2.93 2.84 2.3 2.25 3.37 5.59 6.39 7.11l.07 2.07c2.48.71 2.71 3.48 4.58 4.86a8.64 8.64 0 002.78 2.31 179.54 179.54 0 00-31.86 38.1c-13.97-23.09-33.59-42.81-56.97-56.38-11.79-7.03-24.59-12.2-37.72-16.15-10.34-2.26-20.65-5.28-31.33-5.25-5.78.12-11.53-1.31-17.3-.39-8.07.57-16.24.35-24.17 2.21-7.85 1.89-15.94 2.94-23.5 5.91-47.63 14.81-86.39 54.43-101.05 102-1.71 6.2-4 12.28-4.65 18.73a180.53 180.53 0 00-3.62 32.94c.73 21.24 4.47 42.58 12.93 62.17 16.88 40.63 51.14 73.77 92.51 88.87 18.71 7.3 38.89 9.9 58.87 10.39 18.38-1 36.87-3.67 54.07-10.46 33.58-12.31 62.54-36.5 81.12-67.02.79-1.8 2.03.46 2.55 1.24 7.87 13.07 18.15 24.51 29.29 34.86l.58 1.2a9.35 9.35 0 00-3.34 2.4l-.82-.02.02 2.67c-1.03.3-2.06.61-3.08.93l.08 2.9c-1.35.88-2.67 1.81-3.99 2.75l-.05 2.34-2.24 1.07c-2.26.8-2.51 3.5-4.44 4.64-.6 3.08-3.66 4.27-5.75 6.16-2.12 2.9-5.19 4.75-7.64 7.35-1.81.42-2.91 1.94-3.19 3.71l-2.32.7a25.48 25.48 0 01-3.8 3.9l-2.44.08-.18 2.43c-.98.44-1.95.9-2.91 1.38a14.77 14.77 0 01-3.66 2.38c-3.43 3.33-7.91 5.41-11.97 7.92-.88.9-1.96 1.57-3.09 2.12-3.09 1.88-6.28 3.57-9.44 5.34-1.52.49-3 1.11-4.37 1.93-1.72.96-3.48 1.82-5.24 2.69-4.83 2.27-9.75 4.47-14.9 5.92l-3 1.12c-1.03.31-2.06.61-3.08.93-3.66 2.39-8.31 1.78-12.14 3.84l-.22.07-3.66.94-.14.03-.13.05c-3.6 2.02-7.96.72-11.58 2.5-2.02.19-4.18-.01-6.02 1.04-2.32.29-4.96-.44-6.99 1.04-2.97.42-6.37-.77-9 1.01-9.33.13-18.66.09-27.98.04a28.84 28.84 0 00-9.01-1.03c-4.98-1.23-10.21-1.07-15.08-2.78-3.86 0-7.64-.77-11.3-1.92a136.91 136.91 0 00-12.88-3.51c-4.5-1.14-8.63-3.35-13.11-4.56l-.11-.03-.1-.05-1.76-.9-.14-.07-.14-.06c-3.01-.85-5.57-2.97-8.76-3.18-2.65-2.15-5.86-3.33-8.93-4.7l-.26-.12a123.45 123.45 0 01-7.82-4.32l-2.17-.96c-1.44-2.54-4.68-2.76-6.74-4.6l-.12-.07-.11-.08c-5.75-3.85-11.71-7.5-16.89-12.12l-2.11-1.18c-2.33-2.94-5.67-4.76-8.3-7.38-4.3-4.37-8.62-8.72-12.98-13.01-3.55-3.05-5.69-7.37-9.39-10.26-1.24-2.74-3.32-4.94-5.18-7.26-4.07-5.63-8.25-11.24-11.4-17.44-.87-1.1-1.7-2.21-2.51-3.34-1.07-4.01-4.74-6.8-5.36-11.02-2.98-4.28-4.31-9.43-6.58-14.1-.52-.96-1.05-1.93-1.59-2.88-.32-1.88-.57-3.79-1.37-5.54-.88-2.32-1.59-4.7-2.55-6.98-.87-1.73-1.1-3.67-1.5-5.53-.87-2.26-1.43-4.61-2.02-6.94-1.59-3.97-2.05-8.22-2.36-12.44-1.5-1.81-.65-4.26-.87-6.37-1.62-1.85-.78-4.43-1.03-6.65-2.04-2.63-.49-6.28-.89-9.34-1.45-1.23-1.02-3.15-1.1-4.78.08-7.65.03-15.3.01-22.95a4.11 4.11 0 011.05-2.81c.4-3.29-1.01-7.04.93-9.99.04-1.85-.09-3.76.64-5.51.97-2.21-.35-4.9 1.27-6.87.27-3.84.71-7.68 1.92-11.34 1.83-5.46 2.77-11.19 4.97-16.53 1.18-3.1 2.35-6.23 2.95-9.5 3.2-5.84 4.99-12.31 8.3-18.08 1.35-4.39 4.92-7.58 6.18-12.03 2.39-2.05 3.04-5.29 5.07-7.62 1.22-1.53 2.13-3.27 3.15-4.93 1.35-2.24 3.67-3.84 4.43-6.44 2.17-1.53 3.29-3.98 4.9-6.01 1.55-2.74 4.42-4.45 5.85-7.32 8.94-8.75 17.27-18.17 27.34-25.65 3.32-2.45 6.26-5.6 10.11-7.19a27.48 27.48 0 014.16-3.27l2.74-1.5.18-.12c2.57-1.74 4.86-3.99 7.88-4.98a36.4 36.4 0 018.94-4.87l.16-.07.14-.1c5.47-3.36 11.59-5.74 17.63-7.94l.22-.08 1.79-.83.3-.15c5.19-2.9 11.22-3.53 16.69-5.79 2.92-1.4 6.31-.97 9.25-2.3 1.96-.51 3.92-1.04 5.88-1.57a77.58 77.58 0 0117.38-2.3z"/></g><g fill="#fdaf21"><path d="M285.99 53.33l.68-.62 1.05.22.32.84-2.05-.44zM290.54 54.1l.17.05-.17-.05zM167.33 62.46l.3-.15-.3.15zM165.32 63.37zM147.39 71.48l.3-.17-.14.1-.16.07zM130.39 81.45zM214.07 144.84c17.87-4.89 37-4.83 54.89-.07 6.25.78 11.8 3.89 17.75 5.72a118.9 118.9 0 0142.53 31.31c9.05 10.88 16.45 23.24 20.97 36.68 2.25 4.59 2.73 9.71 4.06 14.58 2.6 10.74 3.04 21.89 2.26 32.89-.62 8.15-2.79 16.05-4.62 23.99-8.2 25.56-24.99 48.65-47.87 62.97-11.67 8.15-25.23 13.14-39 16.49a130.37 130.37 0 01-46.94-.01c-18.32-4.15-35.8-12.26-50.18-24.44a115.24 115.24 0 01-30.88-40.14c-3.1-6.7-5.2-13.78-7.35-20.82-2.53-13.07-4.39-26.51-2.42-39.79.35-3.43 1.13-6.79 1.49-10.22.65-5.96 3.27-11.42 4.83-17.15 10.92-30 35.05-54.81 64.55-66.91 5.3-1.73 10.31-4.43 15.93-5.08zM130.4 431.55l.11.08.12.07-.23-.15zM147.36 441.58zM165.31 449.58l.14.06.14.07-.28-.13zM167.35 450.61l.1.05.11.03-.21-.08zM294.44 457.84l.22-.07-.22.07zM290.64 458.81l.14-.03-.27.08.13-.05z"/></g><path d="M236.71 95.15c5.77-.92 11.52.51 17.3.39 10.68-.03 20.99 2.99 31.33 5.25 13.13 3.95 25.93 9.12 37.72 16.15 23.38 13.57 43 33.29 56.97 56.38a179.54 179.54 0 0131.86-38.1l.48-.49c6.03-5.58 12.79-10.34 19.82-14.6l1.22-1.37c3.16-1.44 6.04-3.4 9.2-4.84 3.08 2.96 5.01 6.81 7.34 10.33 1.74 3.31 4.34 6.1 5.63 9.65 4.11 6.05 6.68 12.97 10.26 19.35-3.08 4.03-8.45 5.13-12.12 8.49-25 16.64-42.07 43.95-47.86 73.24-.36 2.41-.34 4.86-.48 7.29-1.42 2.33-.79 5.16-.9 7.74.18 6.69-.26 13.41.18 20.09l.69 1.6c.12 7.1 1.97 13.99 4.38 20.63.9 4.6 3.33 8.66 5.1 12.96 1.43 3.57 4.12 6.55 4.89 10.4l1.42 1.13c4.21 6.94 8.79 13.76 14.81 19.26 3.28 2.92 5.84 6.73 9.74 8.89 5.78 5.73 13.1 9.63 20.14 13.64-1.12 2.65-1.68 5.54-3.06 8.08-3.8 5.69-6.25 12.17-10.25 17.74-2.96 5.19-6.42 10.07-9.66 15.1a209.46 209.46 0 01-27.37-18.35c-1.48-1.4-2.95-2.81-4.43-4.19-11.14-10.35-21.42-21.79-29.29-34.86-.52-.78-1.76-3.04-2.55-1.24-18.58 30.52-47.54 54.71-81.12 67.02-17.2 6.79-35.69 9.46-54.07 10.46-19.98-.49-40.16-3.09-58.87-10.39-41.37-15.1-75.63-48.24-92.51-88.87-8.46-19.59-12.2-40.93-12.93-62.17.18-11.06 1.42-22.1 3.62-32.94.65-6.45 2.94-12.53 4.65-18.73 14.66-47.57 53.42-87.19 101.05-102 7.56-2.97 15.65-4.02 23.5-5.91 7.93-1.86 16.1-1.64 24.17-2.21m-22.64 49.69c-5.62.65-10.63 3.35-15.93 5.08-29.5 12.1-53.63 36.91-64.55 66.91-1.56 5.73-4.18 11.19-4.83 17.15-.36 3.43-1.14 6.79-1.49 10.22-1.97 13.28-.11 26.72 2.42 39.79 2.15 7.04 4.25 14.12 7.35 20.82a115.24 115.24 0 0030.88 40.14c14.38 12.18 31.86 20.29 50.18 24.44a130.37 130.37 0 0046.94.01c13.77-3.35 27.33-8.34 39-16.49 22.88-14.32 39.67-37.41 47.87-62.97 1.83-7.94 4-15.84 4.62-23.99.78-11 .34-22.15-2.26-32.89-1.33-4.87-1.81-9.99-4.06-14.58-4.52-13.44-11.92-25.8-20.97-36.68a118.9 118.9 0 00-42.53-31.31c-5.95-1.83-11.5-4.94-17.75-5.72a105.88 105.88 0 00-54.89.07z"/></svg>

<?xml version="1.0" encoding="UTF-8" ?>
<!DOCTYPE svg PUBLIC "-//W3C//DTD SVG 1.1//EN" "http://www.w3.org/Graphics/SVG/1.1/DTD/svg11.dtd">
<svg width="512pt" height="512pt" viewBox="0 0 512 512" version="1.1" xmlns="http://www.w3.org/2000/svg">
<g id="#f44219ff">
<path fill="#f44219" opacity="1.00" d=" M 0.00 0.00 L 0.06 0.00 C 0.05 0.02 0.02 0.05 0.00 0.06 L 0.00 0.00 Z" />
<path fill="#f44219" opacity="1.00" d=" M 216.83 50.35 C 218.75 49.31 220.93 49.37 223.05 49.52 C 225.74 49.46 228.27 48.30 230.97 48.43 C 239.62 48.58 248.26 48.35 256.91 48.55 C 259.56 50.31 262.95 49.15 265.92 49.56 C 267.38 50.75 269.32 50.40 271.06 50.54 C 276.11 50.72 281.34 51.26 285.99 53.33 C 286.50 53.44 287.53 53.66 288.04 53.77 C 288.67 53.85 289.91 54.02 290.54 54.10 C 290.58 54.11 290.67 54.13 290.71 54.15 C 295.74 55.45 300.95 56.29 305.72 58.44 C 309.19 60.08 313.37 59.83 316.49 62.28 C 318.23 62.89 319.96 63.51 321.69 64.17 C 323.28 64.53 325.29 64.52 325.84 66.42 C 326.10 66.39 326.60 66.33 326.85 66.31 C 328.67 67.60 330.72 68.50 332.85 69.15 C 336.80 72.08 341.81 73.07 345.61 76.20 C 348.44 77.55 351.27 78.84 353.46 81.17 C 357.60 82.46 360.17 86.30 364.24 87.66 C 365.00 89.96 367.97 89.93 368.89 92.15 C 370.40 92.93 371.84 93.85 372.97 95.14 C 373.36 95.47 374.14 96.12 374.53 96.45 C 375.58 96.92 376.63 97.40 377.69 97.87 C 377.56 98.25 377.30 98.99 377.17 99.36 C 380.86 100.39 382.45 104.73 386.26 105.83 C 386.48 107.07 386.78 108.36 388.18 108.73 C 391.36 110.25 392.74 113.67 395.14 116.03 C 395.27 117.75 396.60 118.43 398.07 118.87 C 400.37 121.12 401.44 124.46 404.46 125.98 C 404.48 126.49 404.51 127.53 404.53 128.05 C 407.01 128.76 407.24 131.53 409.11 132.91 C 409.87 133.87 410.79 134.64 411.89 135.22 C 399.62 146.44 388.76 159.16 380.03 173.32 C 366.06 150.23 346.44 130.51 323.06 116.94 C 311.27 109.91 298.47 104.74 285.34 100.79 C 275.00 98.53 264.69 95.51 254.01 95.54 C 248.23 95.66 242.48 94.23 236.71 95.15 C 228.64 95.72 220.47 95.50 212.54 97.36 C 204.69 99.25 196.60 100.30 189.04 103.27 C 141.41 118.08 102.65 157.70 87.99 205.27 C 86.28 211.47 83.99 217.55 83.34 224.00 C 81.14 234.84 79.90 245.88 79.72 256.94 C 80.45 278.18 84.19 299.52 92.65 319.11 C 109.53 359.74 143.79 392.88 185.16 407.98 C 203.87 415.28 224.05 417.88 244.03 418.37 C 262.41 417.37 280.90 414.70 298.10 407.91 C 331.68 395.60 360.64 371.41 379.22 340.89 C 380.01 339.09 381.25 341.35 381.77 342.13 C 389.64 355.20 399.92 366.64 411.06 376.99 C 411.21 377.29 411.50 377.89 411.64 378.19 C 410.35 378.74 409.24 379.54 408.30 380.59 L 407.48 380.57 C 407.48 381.24 407.49 382.57 407.50 383.24 C 406.47 383.54 405.44 383.85 404.42 384.17 C 404.44 384.89 404.48 386.34 404.50 387.07 C 403.15 387.95 401.83 388.88 400.51 389.82 C 400.50 390.40 400.47 391.57 400.46 392.16 C 399.90 392.43 398.78 392.96 398.22 393.23 C 395.96 394.03 395.71 396.73 393.78 397.87 C 393.18 400.95 390.12 402.14 388.03 404.03 C 385.91 406.93 382.84 408.78 380.39 411.38 C 378.58 411.80 377.48 413.32 377.20 415.09 C 376.62 415.26 375.46 415.62 374.88 415.79 C 373.76 417.23 372.48 418.52 371.08 419.69 C 370.47 419.71 369.25 419.75 368.64 419.77 C 368.60 420.38 368.51 421.59 368.46 422.20 C 367.48 422.64 366.51 423.10 365.55 423.58 C 364.49 424.60 363.19 425.30 361.89 425.96 C 358.46 429.29 353.98 431.37 349.92 433.88 C 349.04 434.78 347.96 435.45 346.83 436.00 C 343.74 437.88 340.55 439.57 337.39 441.34 C 335.87 441.83 334.39 442.45 333.02 443.27 C 331.30 444.23 329.54 445.09 327.78 445.96 C 322.95 448.23 318.03 450.43 312.88 451.88 C 311.88 452.25 310.88 452.63 309.88 453.00 C 308.85 453.31 307.82 453.61 306.80 453.93 C 303.14 456.32 298.49 455.71 294.66 457.77 C 294.61 457.79 294.49 457.82 294.44 457.84 C 293.52 458.08 291.70 458.54 290.78 458.78 L 290.64 458.81 L 290.51 458.86 C 286.91 460.88 282.55 459.58 278.93 461.36 C 276.91 461.55 274.75 461.35 272.91 462.40 C 270.59 462.69 267.95 461.96 265.92 463.44 C 262.95 463.86 259.55 462.67 256.92 464.45 C 247.59 464.58 238.26 464.54 228.94 464.49 C 226.00 463.62 222.98 463.38 219.93 463.46 C 214.95 462.23 209.72 462.39 204.85 460.68 C 200.99 460.68 197.21 459.91 193.55 458.76 C 189.30 457.44 185.03 456.15 180.67 455.25 C 176.17 454.11 172.04 451.90 167.56 450.69 L 167.45 450.66 L 167.35 450.61 L 165.59 449.71 L 165.45 449.64 L 165.31 449.58 C 162.30 448.73 159.74 446.61 156.55 446.40 C 153.90 444.25 150.69 443.07 147.62 441.70 C 147.55 441.67 147.42 441.61 147.36 441.58 C 144.70 440.22 142.08 438.80 139.54 437.26 C 138.99 437.02 137.91 436.54 137.37 436.30 C 135.93 433.76 132.69 433.54 130.63 431.70 L 130.51 431.63 L 130.40 431.55 C 124.65 427.70 118.69 424.05 113.51 419.43 C 112.98 419.13 111.93 418.54 111.40 418.25 C 109.07 415.31 105.73 413.49 103.10 410.87 C 98.80 406.50 94.48 402.15 90.12 397.86 C 86.57 394.81 84.43 390.49 80.73 387.60 C 79.49 384.86 77.41 382.66 75.55 380.34 C 71.48 374.71 67.30 369.10 64.15 362.90 C 63.28 361.80 62.45 360.69 61.64 359.56 C 60.57 355.55 56.90 352.76 56.28 348.54 C 53.30 344.26 51.97 339.11 49.70 334.44 C 49.18 333.48 48.65 332.51 48.11 331.56 C 47.79 329.68 47.54 327.77 46.74 326.02 C 45.86 323.70 45.15 321.32 44.19 319.04 C 43.32 317.31 43.09 315.37 42.69 313.51 C 41.82 311.25 41.26 308.90 40.67 306.57 C 39.08 302.60 38.62 298.35 38.31 294.13 C 36.81 292.32 37.66 289.87 37.44 287.76 C 35.82 285.91 36.66 283.33 36.41 281.11 C 34.37 278.48 35.92 274.83 35.52 271.77 C 34.07 270.54 34.50 268.62 34.42 266.99 C 34.50 259.34 34.45 251.69 34.43 244.04 C 34.42 242.99 34.77 242.05 35.48 241.23 C 35.88 237.94 34.47 234.19 36.41 231.24 C 36.45 229.39 36.32 227.48 37.05 225.73 C 38.02 223.52 36.70 220.83 38.32 218.86 C 38.59 215.02 39.03 211.18 40.24 207.52 C 42.07 202.06 43.01 196.33 45.21 190.99 C 46.39 187.89 47.56 184.76 48.16 181.49 C 51.36 175.65 53.15 169.18 56.46 163.41 C 57.81 159.02 61.38 155.83 62.64 151.38 C 65.03 149.33 65.68 146.09 67.71 143.76 C 68.93 142.23 69.84 140.49 70.86 138.83 C 72.21 136.59 74.53 134.99 75.29 132.39 C 77.46 130.86 78.58 128.41 80.19 126.38 C 81.74 123.64 84.61 121.93 86.04 119.06 C 94.98 110.31 103.31 100.89 113.38 93.41 C 116.70 90.96 119.64 87.81 123.49 86.22 C 124.76 85.00 126.16 83.91 127.65 82.95 C 128.33 82.57 129.71 81.82 130.39 81.45 C 130.44 81.42 130.53 81.36 130.57 81.33 C 133.14 79.59 135.43 77.34 138.45 76.35 C 141.18 74.27 144.19 72.73 147.39 71.48 L 147.55 71.41 L 147.69 71.31 C 153.16 67.95 159.28 65.57 165.32 63.37 C 165.37 63.35 165.48 63.31 165.54 63.29 L 167.33 62.46 C 167.40 62.42 167.55 62.35 167.63 62.31 C 172.82 59.41 178.85 58.78 184.32 56.52 C 187.24 55.12 190.63 55.55 193.57 54.22 C 195.53 53.71 197.49 53.18 199.45 52.65 C 205.10 51.21 210.98 50.48 216.83 50.35 Z" />
</g>
<g id="#fdaf21ff">
<path fill="#fdaf21" opacity="1.00" d=" M 285.99 53.33 L 286.67 52.71 L 287.72 52.93 L 288.04 53.77 C 287.53 53.66 286.50 53.44 285.99 53.33 Z" />
<path fill="#fdaf21" opacity="1.00" d=" M 290.54 54.10 C 290.58 54.11 290.67 54.13 290.71 54.15 C 290.67 54.13 290.58 54.11 290.54 54.10 Z" />
<path fill="#fdaf21" opacity="1.00" d=" M 167.33 62.46 C 167.40 62.42 167.55 62.35 167.63 62.31 C 167.55 62.35 167.40 62.42 167.33 62.46 Z" />
<path fill="#fdaf21" opacity="1.00" d=" M 165.32 63.37 C 165.37 63.35 165.48 63.31 165.54 63.29 C 165.48 63.31 165.37 63.35 165.32 63.37 Z" />
<path fill="#fdaf21" opacity="1.00" d=" M 147.39 71.48 C 147.46 71.44 147.61 71.35 147.69 71.31 L 147.55 71.41 L 147.39 71.48 Z" />
<path fill="#fdaf21" opacity="1.00" d=" M 130.39 81.45 C 130.44 81.42 130.53 81.36 130.57 81.33 C 130.53 81.36 130.44 81.42 130.39 81.45 Z" />
<path fill="#fdaf21" opacity="1.00" d=" M 214.07 144.84 C 231.94 139.95 251.07 140.01 268.96 144.77 C 275.21 145.55 280.76 148.66 286.71 150.49 C 302.98 157.60 317.66 168.31 329.24 181.80 C 338.29 192.68 345.69 205.04 350.21 218.48 C 352.46 223.07 352.94 228.19 354.27 233.06 C 356.87 243.80 357.31 254.95 356.53 265.95 C 355.91 274.10 353.74 282.00 351.91 289.94 C 343.71 315.50 326.92 338.59 304.04 352.91 C 292.37 361.06 278.81 366.05 265.04 369.40 C 249.55 372.24 233.58 372.23 218.10 369.39 C 199.78 365.24 182.30 357.13 167.92 344.95 C 154.78 334.12 144.22 320.21 137.04 304.81 C 133.94 298.11 131.84 291.03 129.69 283.99 C 127.16 270.92 125.30 257.48 127.27 244.20 C 127.62 240.77 128.40 237.41 128.76 233.98 C 129.41 228.02 132.03 222.56 133.59 216.83 C 144.51 186.83 168.64 162.02 198.14 149.92 C 203.44 148.19 208.45 145.49 214.07 144.84 Z" />
<path fill="#fdaf21" opacity="1.00" d=" M 130.40 431.55 L 130.51 431.63 L 130.63 431.70 C 130.57 431.66 130.46 431.59 130.40 431.55 Z" />
<path fill="#fdaf21" opacity="1.00" d=" M 147.36 441.58 C 147.42 441.61 147.55 441.67 147.62 441.70 C 147.55 441.67 147.42 441.61 147.36 441.58 Z" />
<path fill="#fdaf21" opacity="1.00" d=" M 165.31 449.58 L 165.45 449.64 L 165.59 449.71 C 165.52 449.68 165.38 449.61 165.31 449.58 Z" />
<path fill="#fdaf21" opacity="1.00" d=" M 167.35 450.61 L 167.45 450.66 L 167.56 450.69 C 167.51 450.67 167.40 450.63 167.35 450.61 Z" />
<path fill="#fdaf21" opacity="1.00" d=" M 294.44 457.84 C 294.49 457.82 294.61 457.79 294.66 457.77 C 294.61 457.79 294.49 457.82 294.44 457.84 Z" />
<path fill="#fdaf21" opacity="1.00" d=" M 290.64 458.81 L 290.78 458.78 C 290.71 458.80 290.57 458.84 290.51 458.86 L 290.64 458.81 Z" />
</g>
<g id="#000000ff">
<path fill="#000000" opacity="1.00" d=" M 236.71 95.15 C 242.48 94.23 248.23 95.66 254.01 95.54 C 264.69 95.51 275.00 98.53 285.34 100.79 C 298.47 104.74 311.27 109.91 323.06 116.94 C 346.44 130.51 366.06 150.23 380.03 173.32 C 388.76 159.16 399.62 146.44 411.89 135.22 L 412.37 134.73 C 418.40 129.15 425.16 124.39 432.19 120.13 C 432.49 119.78 433.11 119.10 433.41 118.76 C 436.57 117.32 439.45 115.36 442.61 113.92 C 445.69 116.88 447.62 120.73 449.95 124.25 C 451.69 127.56 454.29 130.35 455.58 133.90 C 459.69 139.95 462.26 146.87 465.84 153.25 C 462.76 157.28 457.39 158.38 453.72 161.74 C 428.72 178.38 411.65 205.69 405.86 234.98 C 405.50 237.39 405.52 239.84 405.38 242.27 C 403.96 244.60 404.59 247.43 404.48 250.01 C 404.66 256.70 404.22 263.42 404.66 270.10 C 404.83 270.50 405.18 271.30 405.35 271.70 C 405.47 278.80 407.32 285.69 409.73 292.33 C 410.63 296.93 413.06 300.99 414.83 305.29 C 416.26 308.86 418.95 311.84 419.72 315.69 C 420.07 315.97 420.78 316.54 421.14 316.82 C 425.35 323.76 429.93 330.58 435.95 336.08 C 439.23 339.00 441.79 342.81 445.69 344.97 C 451.47 350.70 458.79 354.60 465.83 358.61 C 464.71 361.26 464.15 364.15 462.77 366.69 C 458.97 372.38 456.52 378.86 452.52 384.43 C 449.56 389.62 446.10 394.50 442.86 399.53 C 433.28 394.14 424.11 388.01 415.49 381.18 C 414.01 379.78 412.54 378.37 411.06 376.99 C 399.92 366.64 389.64 355.20 381.77 342.13 C 381.25 341.35 380.01 339.09 379.22 340.89 C 360.64 371.41 331.68 395.60 298.10 407.91 C 280.90 414.70 262.41 417.37 244.03 418.37 C 224.05 417.88 203.87 415.28 185.16 407.98 C 143.79 392.88 109.53 359.74 92.65 319.11 C 84.19 299.52 80.45 278.18 79.72 256.94 C 79.90 245.88 81.14 234.84 83.34 224.00 C 83.99 217.55 86.28 211.47 87.99 205.27 C 102.65 157.70 141.41 118.08 189.04 103.27 C 196.60 100.30 204.69 99.25 212.54 97.36 C 220.47 95.50 228.64 95.72 236.71 95.15 M 214.07 144.84 C 208.45 145.49 203.44 148.19 198.14 149.92 C 168.64 162.02 144.51 186.83 133.59 216.83 C 132.03 222.56 129.41 228.02 128.76 233.98 C 128.40 237.41 127.62 240.77 127.27 244.20 C 125.30 257.48 127.16 270.92 129.69 283.99 C 131.84 291.03 133.94 298.11 137.04 304.81 C 144.22 320.21 154.78 334.12 167.92 344.95 C 182.30 357.13 199.78 365.24 218.10 369.39 C 233.58 372.23 249.55 372.24 265.04 369.40 C 278.81 366.05 292.37 361.06 304.04 352.91 C 326.92 338.59 343.71 315.50 351.91 289.94 C 353.74 282.00 355.91 274.10 356.53 265.95 C 357.31 254.95 356.87 243.80 354.27 233.06 C 352.94 228.19 352.46 223.07 350.21 218.48 C 345.69 205.04 338.29 192.68 329.24 181.80 C 317.66 168.31 302.98 157.60 286.71 150.49 C 280.76 148.66 275.21 145.55 268.96 144.77 C 251.07 140.01 231.94 139.95 214.07 144.84 Z" />
</g>
</svg>
